src/Assets/icons/instagram-light.svg

<svg width="17" height="16" viewBox="0 0 17 16" fill="none" xmlns="http://www.w3.org/2000/svg">
<path d="M8.3335 1.44062C10.471 1.44062 10.7241 1.45 11.5647 1.4875C12.346 1.52187 12.7679 1.65313 13.0491 1.7625C13.421 1.90625 13.6897 2.08125 13.9679 2.35938C14.2491 2.64062 14.421 2.90625 14.5647 3.27813C14.6741 3.55938 14.8054 3.98438 14.8397 4.7625C14.8772 5.60625 14.8866 5.85938 14.8866 7.99375C14.8866 10.1313 14.8772 10.3844 14.8397 11.225C14.8054 12.0063 14.6741 12.4281 14.5647 12.7094C14.421 13.0813 14.246 13.35 13.9679 13.6281C13.6866 13.9094 13.421 14.0813 13.0491 14.225C12.7679 14.3344 12.3429 14.4656 11.5647 14.5C10.721 14.5375 10.4679 14.5469 8.3335 14.5469C6.196 14.5469 5.94287 14.5375 5.10225 14.5C4.321 14.4656 3.89912 14.3344 3.61787 14.225C3.246 14.0813 2.97725 13.9063 2.69912 13.6281C2.41787 13.3469 2.246 13.0813 2.10225 12.7094C1.99287 12.4281 1.86162 12.0031 1.82725 11.225C1.78975 10.3813 1.78037 10.1281 1.78037 7.99375C1.78037 5.85625 1.78975 5.60313 1.82725 4.7625C1.86162 3.98125 1.99287 3.55938 2.10225 3.27813C2.246 2.90625 2.421 2.6375 2.69912 2.35938C2.98037 2.07812 3.246 1.90625 3.61787 1.7625C3.89912 1.65313 4.32412 1.52187 5.10225 1.4875C5.94287 1.45 6.196 1.44062 8.3335 1.44062ZM8.3335 0C6.16162 0 5.88975 0.009375 5.03662 0.046875C4.18662 0.084375 3.60225 0.221875 3.096 0.41875C2.56787 0.625 2.121 0.896875 1.67725 1.34375C1.23037 1.7875 0.958496 2.23438 0.752246 2.75938C0.555371 3.26875 0.417871 3.85 0.380371 4.7C0.342871 5.55625 0.333496 5.82812 0.333496 8C0.333496 10.1719 0.342871 10.4438 0.380371 11.2969C0.417871 12.1469 0.555371 12.7313 0.752246 13.2375C0.958496 13.7656 1.23037 14.2125 1.67725 14.6562C2.121 15.1 2.56787 15.375 3.09287 15.5781C3.60225 15.775 4.1835 15.9125 5.0335 15.95C5.88662 15.9875 6.1585 15.9969 8.33037 15.9969C10.5022 15.9969 10.7741 15.9875 11.6272 15.95C12.4772 15.9125 13.0616 15.775 13.5679 15.5781C14.0929 15.375 14.5397 15.1 14.9835 14.6562C15.4272 14.2125 15.7022 13.7656 15.9054 13.2406C16.1022 12.7313 16.2397 12.15 16.2772 11.3C16.3147 10.4469 16.3241 10.175 16.3241 8.00313C16.3241 5.83125 16.3147 5.55938 16.2772 4.70625C16.2397 3.85625 16.1022 3.27188 15.9054 2.76562C15.7085 2.23438 15.4366 1.7875 14.9897 1.34375C14.546 0.9 14.0991 0.625 13.5741 0.421875C13.0647 0.225 12.4835 0.0875 11.6335 0.05C10.7772 0.009375 10.5054 0 8.3335 0Z" fill="white"/>
<path d="M8.3335 3.89062C6.06475 3.89062 4.22412 5.73125 4.22412 8C4.22412 10.2688 6.06475 12.1094 8.3335 12.1094C10.6022 12.1094 12.4429 10.2688 12.4429 8C12.4429 5.73125 10.6022 3.89062 8.3335 3.89062ZM8.3335 10.6656C6.86162 10.6656 5.66787 9.47188 5.66787 8C5.66787 6.52813 6.86162 5.33437 8.3335 5.33437C9.80537 5.33437 10.9991 6.52813 10.9991 8C10.9991 9.47188 9.80537 10.6656 8.3335 10.6656Z" fill="white"/>
<path d="M13.5647 3.72817C13.5647 4.25943 13.1335 4.68755 12.6054 4.68755C12.0741 4.68755 11.646 4.2563 11.646 3.72817C11.646 3.19692 12.0772 2.7688 12.6054 2.7688C13.1335 2.7688 13.5647 3.20005 13.5647 3.72817Z" fill="white"/>
</svg>

<svg xmlns="http://www.w3.org/2000/svg" width="17" height="16" fill="#fff" xmlns:v="https://vecta.io/nano"><path d="M8.334 1.441l3.231.047c.781.034 1.203.166 1.484.275.372.144.641.319.919.597a2.46 2.46 0 0 1 .597.919c.109.281.241.706.275 1.484l.047 3.231-.047 3.231c-.034.781-.166 1.203-.275 1.484a2.47 2.47 0 0 1-.597.919 2.46 2.46 0 0 1-.919.597c-.281.109-.706.241-1.484.275l-3.231.047c-2.138 0-2.391-.009-3.231-.047-.781-.034-1.203-.166-1.484-.275a2.47 2.47 0 0 1-.919-.597 2.46 2.46 0 0 1-.597-.919c-.109-.281-.241-.706-.275-1.484L1.78 7.994l.047-3.231c.034-.781.166-1.203.275-1.484.144-.372.319-.641.597-.919a2.46 2.46 0 0 1 .919-.597c.281-.109.706-.241 1.484-.275l3.231-.047zm0-1.441L5.037.047c-.85.038-1.434.175-1.941.372-.528.206-.975.478-1.419.925A3.92 3.92 0 0 0 .752 2.76C.555 3.269.418 3.85.38 4.7L.333 8l.047 3.297c.037.85.175 1.434.372 1.941.206.528.478.975.925 1.419a3.91 3.91 0 0 0 1.416.922c.509.197 1.091.334 1.941.372l3.297.047 3.297-.047c.85-.037 1.434-.175 1.941-.372a3.91 3.91 0 0 0 1.416-.922 3.91 3.91 0 0 0 .922-1.416c.197-.509.334-1.091.372-1.941l.047-3.297-.047-3.297c-.038-.85-.175-1.434-.372-1.941a3.75 3.75 0 0 0-.916-1.422 3.91 3.91 0 0 0-1.416-.922c-.51-.196-1.091-.333-1.941-.371L8.334 0zm0 3.891A4.11 4.11 0 0 0 4.224 8a4.11 4.11 0 0 0 4.109 4.109A4.11 4.11 0 0 0 12.443 8a4.11 4.11 0 0 0-4.109-4.109zm0 6.775c-1.472 0-2.666-1.194-2.666-2.666s1.194-2.666 2.666-2.666S10.999 6.528 10.999 8s-1.194 2.666-2.666 2.666zm5.231-6.938a.96.96 0 0 1-.959.959.96.96 0 0 1-.959-.959.96.96 0 0 1 .959-.959.96.96 0 0 1 .959.959z"/></svg>
